assets/icons/bowtie/1.22/uE62F-edit-paste.svg

<svg xmlns="http://www.w3.org/2000/svg" viewBox="0 0 448 448" enable-background="new 0 0 448 448"><path d="M352 192v-128h-96c0-35.297-28.703-64-64-64s-64 28.703-64 64h-96v352h160v32h224v-256h-64zm-224-96h32v-32c0-17.641 14.359-32 32-32s32 14.359 32 32v32h32v32h-128v-32zm-64 288v-288h32v64h192v-64h32v96h-128v192h-128zm320 32h-160v-192h160v192z"/></svg>

<svg xmlns="http://www.w3.org/2000/svg" viewBox="0 0 448 448"><path d="M352 192V64h-96c0-35.297-28.703-64-64-64s-64 28.703-64 64H32v352h160v32h224V192h-64zM128 96h32V64c0-17.64 14.36-32 32-32s32 14.36 32 32v32h32v32H128V96zM64 384V96h32v64h192V96h32v96H192v192H64zm320 32H224V224h160v192z"/></svg>
